X: 20911
T: LIGHT AS THISTLEDOWN
Q: "Allegro"
%R: reel, march
B: "Edinburgh Repository of Music" v.2 p.91 #1
F: http://digital.nls.uk/special-collections-of-printed-music/pageturner.cfm?id=87776133
Z: 2015 John Chambers <jc:trillian.mit.edu>
N: The 2nd strain has final repeat but no initial repeat; not fixed.
M: C
L: 1/8
K: D
AA |\
Ad d2 Bd zd | c2 ea {g}f2 zA |\
Ad d2 B2 dd | g2 (f/e/d/c/) d2 :|\
zA |\
A2 AA A2 Bc | d2 FF F2 zf |
b2 dd d2 ef | g2 fd Ha2 AA |\
Ad d2 Bd zd | c2 ea {g}f2 zA |\
Ad d2 B2 dd | g2 (f/e/d/c/) d2 H:|

%%sep 2 1 500
%%sep 1 1 500

